X:766
M:C|
L:1/8
K:A
e/e/e (ea f2fa|e/e/e (ed cAAc|d2(fd c2(ec|B2(BA B=GG:|
|:B|efed c2 (Ac|efed cAAc|efed c2(Ac|B2(BA B=GGB|efed c2(Ac|
efae cAAc|1 d2(fd c2(ec|B2(BA B=GG:|2 d/d/d (fd c/c/c (ec|B/B/B (cA B=GG|]

